X: 39504
T: Tattie Ball, The
R: reel
M: 4/4
K: Amixolydian
AcBc AFFA|E2EF EFA2-|AcBc AFF2|ef2e f3A-|
AcBc AFFA|E2EF EFA2-|AcBc AFF2|ef2e f3f-|
faef cBBc|e2ce fBBf-|faef cBB2|zf2e f3f-|
faef cBBc|e2cA BcAB|c2Bc eccB|AFFE F3A-||

